svgs/sharp-solid/x-ray.svg

<svg xmlns="http://www.w3.org/2000/svg" viewBox="0 0 512 512"><!--! Font Awesome Pro 6.6.0 by @fontawesome - https://fontawesome.com License - https://fontawesome.com/license (Commercial License) Copyright 2024 Fonticons, Inc. --><path d="M0 32l32 0 448 0 32 0 0 64-32 0 0 320 32 0 0 64-32 0L32 480 0 480l0-64 32 0L32 96 0 96 0 32zM272 96l-32 0 0 16 0 32-80 0-16 0 0 32 16 0 80 0 0 48-112 0-16 0 0 32 16 0 112 0 0 70.6L181.3 304 128 304l0 57.6L170.7 416l170.7 0L384 361.6l0-57.6-53.3 0L272 326.6l0-70.6 112 0 16 0 0-32-16 0-112 0 0-48 80 0 16 0 0-32-16 0-80 0 0-32 0-16zM208 352a16 16 0 1 1 0 32 16 16 0 1 1 0-32zm80 16a16 16 0 1 1 32 0 16 16 0 1 1 -32 0z"/></svg>

<svg xmlns="http://www.w3.org/2000/svg" viewBox="0 0 512 512"><!--! Font Awesome Pro 6.5.2 by @fontawesome - https://fontawesome.com License - https://fontawesome.com/license (Commercial License) Copyright 2024 Fonticons, Inc. --><path d="M0 32H32 480h32V96H480V416h32v64H480 32 0V416H32V96H0V32zM272 96H240v16 32H160 144v32h16 80v48H128 112v32h16H240v70.6L181.3 304H128v57.6L170.7 416H341.3L384 361.6V304H330.7L272 326.6V256H384h16V224H384 272V176h80 16V144H352 272V112 96zM208 352a16 16 0 1 1 0 32 16 16 0 1 1 0-32zm80 16a16 16 0 1 1 32 0 16 16 0 1 1 -32 0z"/></svg>
